!! Example 10: "Texas Rangers"
!! from William H. Tallmadge, "Folk Organum: A Study of Origins" in
!! "American Music" Vol. 2, No. 3 (1984) p.63
**kern	**kern
*M4/4	*M4/4
16G	16c
=1	=1
8G	8c
8c	8e
8c	8e
8B	8d
8c	8e
4d	4g
8e	8g
=2	=2
16c	16e
8.B	8.e
8G	8c
8F	8B
4.G;	4.c;
8G	8c
=3	=3
8G	8c
8c	8e
8c	8e
8B	8d
8c	8e
4d	4g
8c	8e
=4	=4
16d	16g
8.d	8.g
8e	8g
8c	8g
4.d;	4.g;
8c	8e
=5	=5
8d	8g
8d	8g
16d	16g
8.d	8.g
8b	8dd
4g	4b
8d	8g
=6	=6
8f	8g
8e	8g
8d	8g
8B	8g
4.c;	4.e;
8e	8g
=7	=7
8f	8g
8e	8g
8d	8g
8c	8e
8e	8g
4d	4g
8d	8g
=8	=8
8c	8f
8B	8f
8G	8e
8F	8e
[4G;	[4d;
8.G]	8.d]
==	==
*-	*-
